X:1
T:When Our Ships Come Sailing Home
T:When Our Ships Come Sailing Home
T:John Robson Sweney
T:Johnson Oatman, Jr., 1894
T:Public Domain Courtesy of the Cyber Hymnal™
T:Public Domain Courtesy of the Cyber Hymnal™
C:John Robson Sweney
Z:Public Domain
Z:Courtesy of the Cyber Hymnal™
%%score 1 ( 2 3 )
L:1/8
Q:1/4=85
M:4/4
K:G
V:1 treble 
V:2 bass 
V:3 bass 
V:1
 [B,G][CA] | [DB][DB][B,G][CA] [DB][DB][DB][=Fd] | [Ed][Ec][EG][_EA] [DB]2 [DB][Ec] | %3
w: 1.~When our|ships have crossed the o- cean, And have|been all round the world, When they|
w: 2.~But if|there is such re- joic- ing To see|ves- sels here get home, When we|
w: 3.~O, me-|thinks I hear the an- gels shout, “Here|comes an earth- ly bark; She has|
w: 4.~So with|Je- sus as our cap- tain We ex-|pect to gain that shore; We ex-|
 [DB][CA][CD][DB] [CA][B,G][B,D][B,G] | [^CG][CB][CA][CE] !fermata![=CA]2 [B,G][CA] | %5
w: safe- ly gain the har- bor, And their|sails a- gain are furled; We re-|
w: know that in a lit- tle While these|ships a- gain will roam; Oh, what|
w: found her way to Hea- ven, Tho’ the|way was rough and dark; But she|
w: pect to cast our an- chor there, And|stay for- ev- er- more; And we|
 [DB][DB][B,G][CA] [DB][DB][DB][=Fd] | [Ed][Ec][EG][_EA] [DB]2 [DB][DB] | %7
w: joice to see them en- ter, And to|know the an- chor’s cast, Rais- ing|
w: must it be in Hea- ven When a|soul comes sail- ing in, To go|
w: had a star to guide her, Called the|bright and morn- ing star; It has|
w: know the an- gels will be there To|greet us when we come; They will|
 [=Fd][Ec][CA][Ec] [Ec][DB][B,G][DB] | [DB][CA][CD][CA] [B,G]2 ||"^Refrain" [GB][Gd] | %10
w: joy- ful shouts of wel- come, For our|ships are home at last.||
w: out no more for- ev- er, Sail- ing|on the sea of sin?|Oh, what|
w: guid- ed mil- lions o- ver From that|dis- tant land a- far.”||
w: join in songs of rap- ture, “Wel- come|home, oh, wel- come home.”||
 [Fd][Fc][FA][Fc] [Ac][GB][DG][DB] | [DB][DA][DG][FA] [GB]2 [DB][DB] | %12
w: ||
w: sing- ing, oh, what shout- ing, When our|ships come sail- ing home; They have|
w: ||
w: ||
 [^DB]>[DB] [DB][DA] [FA][EG][EB][EB] | [G^c]>[Gc] [GB][Gc] [Fd]2 [Fd]>[Fe] | %14
w: ||
w: stood the might- y tem- pests, They have|crossed the o- cean’s foam; They have|
w: ||
w: ||
 [Fd][Fc][Fc][Fd] [Ac][GB][GB][Gc] | [GB][DA][DG][DA] [GB]3 [GB] | %16
w: ||
w: passed o’er storm- y bil- lows, But they|now have gained the shore; The|
w: ||
w: ||
 [EA]>[Ae] !fermata![Ae][EA] [DG]>[Gd] !fermata![Gd][DB] | [DB][CA] [DB]>[CA] [B,G]2 |] %18
w: ||
w: an- chor’s cast, they’re home at last, The|voyage is safe- ly o’er.|
w: ||
w: ||
V:2
 z2 | G,,2 G,2 G,,2 G,2 | C,2 C2 G,2 z2 | [D,,D,]2 [F,A,]2 G,,2 [D,G,]2 | %4
 A,,2 [E,G,]2 !fermata![D,F,]2 z2 | G,,2 G,2 G,,2 G,2 | C,2 C2 G,2 z2 | C,2 E,2 G,,2 D,2 | %8
 D,,2 [D,F,]2 [G,,D,]2 || [G,D][G,B,] | [D,A,][D,A,][D,D][D,D] [G,D][G,D][G,B,]G, | %11
 [D,G,][D,C][D,B,][D,D] [G,D]2 G,G, | [B,,F,]>[B,,F,] [B,,F,][B,,B,] [E,B,][E,B,][E,G,][E,G,] | %13
 [E,A,]>[E,A,] [A,,A,][A,,A,] [D,A,]2 [D,A,]>[D,A,] | %14
 [D,A,][D,A,][D,A,][D,D] [G,D][G,D][G,D][G,E] | [G,D][G,C][G,B,][G,C] [G,D]3 [G,D] | %16
 [C,C]>[C,C] !fermata![C,C][C,C] [G,B,]>[G,B,] !fermata![G,B,]G, | %17
 [D,G,][D,F,] [D,G,]>D, [G,,D,]2 |] %18
V:3
 x2 | x8 | x8 | x8 | x8 | x8 | x8 | x8 | x6 || x2 | x7 G, | x6 G,G, | x8 | x8 | x8 | x8 | x7 G, | %17
 x7/2 D,/ x2 |] %18

